X:1
T: Rob and Lugi
C:
R:Strathspey
Q: 128
K:A
M:4/4
L:1/16
e2|:AAA2 c4 e3a c3A|AAA2 c4 d3=g B3=G|AAA2 c4 e3a c3a|=g3a e3f =g3d B3=G|
AAA2 c4 e3a c3A|AAA2 c4 d3=g B3=G|AAA2 c4 e3a c3a|=g3a e3f =g3d B3=G|
a4 e2fg a3e c3A|a4 e3f =g3d B3=G|a4 e2fg ae3 f3d|e3a c3a d2=g2 B2=G2|
a4 e2fg a3e c3A|a4 e3f =g3d B3=G|a4 e2fg ae3 f3d|e3a c3a d2=g2 B2=G2:|
